src/16/actions/kr_combine.svg

<svg xmlns="http://www.w3.org/2000/svg" viewBox="0 0 16 16"><path d="M2 3v1h4v8H2v1h5V9h3v1.5L14 8l-4-2.5V7H7V3H2z" fill="currentColor" color="#5d656b"/></svg>

<svg xmlns="http://www.w3.org/2000/svg" viewBox="0 0 16 16">
  <defs id="defs3051">
    <style type="text/css" id="current-color-scheme">
      .ColorScheme-Text {
        color:#5d656b;
      }
      </style>
  </defs>
 <path style="fill:currentColor;fill-opacity:1;stroke:none" 
     d="M 2 3 L 2 4 L 6 4 L 6 12 L 2 12 L 2 13 L 7 13 L 7 9 L 10 9 L 10 10.5 L 14 8 L 10 5.5 L 10 7 L 7 7 L 7 3 L 6 3 L 2 3 z "
     class="ColorScheme-Text"
     />
</svg>
